X:1
T:Se per colpa del vostro fiero sdegno
T:Jacques Arcadelt c.1500-1568
T:Se per colpa del vostro fiero sdegno
T:This work is licensed under CC0: creativecommons.org/publicdomain/zero/1.0/
T:Transcribed from 1539 Gardano edition of Arcadelt's Il primo libro di madrigali a 4 Original note values halved
T:This work is licensed under CC0: creativecommons.org/publicdomain/zero/1.0/
T:This work is licensed under CC0: creativecommons.org/publicdomain/zero/1.0/
T:This work is licensed under CC0: creativecommons.org/publicdomain/zero/1.0/
T:This work is licensed under CC0: creativecommons.org/publicdomain/zero/1.0/
C:Jacques Arcadelt
C:c.1500-1568
Z:Anonymous
Z:This work is licensed under CC0: creativecommons.org/publicdomain/zero/1.0/
%%score [ 1 2 3 4 ]
L:1/8
M:4/4
K:C
V:1 treble nm="Piano" snm="Pno."
V:2 treble transpose=-12 nm="Piano" snm="Pno."
V:3 treble transpose=-12 nm="Piano" snm="Pno."
V:4 treble nm="Piano" snm="Pno."
V:1
"^Cantus" x8 |"^Instrument change" G4 G2 G2 | G6 G2 | F6 F2 | E2 D4 C2 | D8 | z2 G2 G2 G2 | %7
w: |Se per col-|pa del|vo- stro|fie- ro sde-|gno|il do- lor|
 A2 B2 c4 | B4 z2 G2 | G2 G2 A4- | A2 G2 F2 E2 | D2 E2 C3 D | E2 D2 z2 G2 | G2 G2 G4- | G2 G2 F4- | %15
w: che m'af- flig-|ge ma-|don- na mi|_ tras- por- t'a|l'al- tra stig- *|* ge non|ha- vrò duol|_ del mio|
 F2 F2 E2 D2- | D2 C2 D4 | D4 z2 G2 | G2 G2 A2 B2 | c4 B4 | z2 G2 G2 G2 | A6 G2 | F2 E2 D2 E2 | %23
w: _ sup- pli- tio|_ in- de-|gno ne|de l'et- er- no|fo- co|ma di voi|che ver-|re- te\_a si- mil|
 C3 D E2 D2 | z2 D2 D2 D2 | E2 F2 G2 G2 | A4 B2 c2- | cBAG A4 | B4 z2 G2 | G2 G2 E2 F2 | G4 G4 | %31
w: lo- * * co|per- che so-|ven- te\_in voi mi-|ran- do fi-||so per|vir- tu del bel|vi- so|
 z2 G2 G2 G2 | G2 G2 E4- | E2 C2 D2 E2 | F8 | E6 C2 | D2 E2 F4- | F4 E4 | z2 E2 E4- | E2 D2 E2 E2 | %40
w: pe- na non|fia la giu|_ che'l cor mi|toc-|chi, che'l|cor mi toc-|* chi|so- l'un|_ tor- men- t'ha-|
 D8 | z2 G2 G2 F2 | E2 D2 C4 | B,4 z2 B,2 | C2 D2 E4- | E4 D4- | D8 |] %47
w: vro|di chiu- der|gli\_oc- * *|chi, di|chiu- der gli\_oc-|* chi.|_|
V:2
"^Alto" x8 |"^Instrument change" E,4 E,2 E,2 | D,6 E,2 | D,6 D,2 | C,2 F,,2 G,,4 | A,,4 B,,4 | %6
w: |Se per col-|pa del|vo- stro|fie- ro sde-|* gno|
 z2 D,2 E,2 D,2 | E,2 G,4 F,2 | G,4 z2 E,2 | E,2 E,2 F,4- | F,2 E,2 D,2 C,2 | B,,2 G,,2 A,,4 | %12
w: il do- lor|che m'af- flig-|ge ma-|don- na mi|_ tras- por- t'a|l'al- tra stig-|
 B,,4 z2 D,2 | D,2 D,2 E,4- | E,2 E,2 D,4- | D,2 D,2 C,2 F,,2 | G,,4 A,,4 | B,,4 z2 D,2 | %18
w: ge non|ha- vrò duol|_ del mio|_ sup- pli- tio|in- de-|gno ne|
 E,2 D,2 E,2 G,2- | G,2 F,2 G,4 | z2 E,2 E,2 E,2 | F,6 E,2 | D,2 C,2 B,,2 G,,2 | A,,4 B,,4- | %24
w: de l'et- er- no|_ fo- co|ma di voi|che ver-|re- te\_a si- mil|lo- co|
 B,,4 z2 B,,2 | B,,2 C,2 D,2 E,2 | E,2 F,E, F,G, A,2- | A,G, G,4"^#" ^F,2 | G,4 z2 D,2 | %29
w: _ per-|che so- ven- te\_in|voi mi- * * * ran-|* do fi- *|so per|
 D,2 E,2- E,D, C,2- | C,2 B,,2 E,4 | D,2 D,2 E,2 E,2 | D,2 D,2 G,4 | z2 z2 z2 C,2 | D,2 D,2 D,4 | %35
w: vir- tu _ _ del|_ bel vi-|so pe- na non|fia la giu|che'l|cor mi toc-|
 C,4 G,,4 | G,,2 G,,2 D,4- | D,4 C,4- | C,4 z2 C,2 | C,2 B,,2 C,2 C,2 | B,,2 B,,2 B,,2 A,,2 | %41
w: chi, che'l|cor mi toc-|* chi|_ so-|l'un tor- men- t'ha-|vro di chiu- der|
 G,,2 G,,2 z2 F,,2 | G,,2 G,,2 A,,4 | D,,4 z2 D,2 | E,2 D,2 C,4- | C,4 B,,4- | B,,8 |] %47
w: gli\_oc- chi, di|chiu- der- gli\_oc-|chi, di|chiu- der gli\_oc-|* chi.|_|
V:3
"^Tenor" x8 |"^Instrument change" C,4 C,2 C,2 | B,,6 C,2 | A,,6 _B,,2 | G,,2"^b" _B,,3 A,, G,,2- | %5
w: |Se per col-|pa del|vo- stro|fie- ro _ sde-|
 G,,2"^#" ^F,,2 G,,3 A,, | B,,4 z2 G,,2 | C,2 D,2 D,2 C,2 | D,2 D,2 z2 C,2 | C,2 C,2 C,4- | %10
w: * * gno _|_ il|do- lor che m'af-|flig- ge ma-|don- na mi|
 C,2 C,2 A,,2 A,,2 | A,,G,, G,,4"^#" ^F,,2 | G,,4 z2 B,,2 | B,,2 B,,2 C,4- | C,2 C,2 A,,4- | %15
w: _ tras- por- t'a|l'al- * tra stig-|ge non|ha- vrò duol|_ del mio|
 A,,2 _B,,2 G,,2"^b" B,,2- | B,,A,, G,,4"^#" ^F,,2 | G,,3 A,, B,,4 | z2 G,,2 C,2 D,2 | %19
w: _ sup- pli- tio|_ in- de- *|gno _ _|ne de l'et-|
 D,2 C,2 D,2 D,2 | z2 C,2 C,2 C,2 | C,6 C,2 | A,,2 A,,2 A,,G,, G,,2- | G,,2"^#" ^F,,2 G,,4- | %24
w: er- no fo- co|ma di voi|che ver-|re- te\_a si- * mil|_ lo- co|
 G,,4 z2 G,,2 | G,,2 A,,2 B,,2 C,2 | C,2 D,2 D,2 C,2 | E,4 D,4 | G,,4 z2 B,,2 | B,,2 B,,2 C,2 C,2 | %30
w: _ per-|che so- ven- te\_in|voi mi- ran- do|fi- *|so per|vir- tu del bel|
 D,4 C,4 | G,,4 z2 C,2 | C,2 B,,2 C,2 C,2 | G,,2 A,,2 F,,2 G,,2 | A,,4 _B,,4 | G,,4 z2 G,,2 | %36
w: vi- *|so pe-|na non fia la|giu che'l cor mi|toc- *|chi, che'l|
 B,,2 C,2 A,,4 | _B,,4 G,,4- | G,,4 z2 G,,2 | G,,2 G,,2 G,,2 G,,2 | G,,3 F,,/E,,/ D,,2 D,2 | %41
w: cor mi toc-|* chi|_ so-|l'un tor- men- t'ha-|vro _ _ _ di|
 D,2 C,2 B,,2 A,,2- | A,,G,, G,,4 F,,2 | G,,8 | z2 G,,2 G,,2 G,,2 | G,,4 G,,4- | G,,8 |] %47
w: chiu- der gli oc-||chi,|di chiu- der|gli\_oc- chi.|_|
V:4
"^Bass" x8 |"^Instrument change" C,4 C,2 C,2 | G,6 C,2 | D,6 _B,,2 | C,2 D,2 E,4 | D,4 G,,4 | %6
w: |Se per col-|pa del|vo- stro|fie- ro sde-|* gno|
 z2 G,2 C2 B,2 | A,2 G,2 A,4 | G,4 z2 C,2 | C,2 C,2 F,4- | F,2 C,2 D,2 A,,2 | B,,2 C,2 A,,4 | %12
w: il do- lor|che m'af- flig-|ge ma-|don- na mi|_ tras- por- t'a|l'al- tra stig-|
 G,,4 z2 G,2 | G,2 G,2 C,4- | C,2 C,2 D,4- | D,2 _B,,2 C,2 D,2 | E,4 D,4 | G,,4 z2 G,2 | %18
w: ge non|ha- vrò duol|_ del mio|_ sup- pli- tio|in- de-|gno ne|
 C2 B,2 A,2 G,2 | A,4 G,4 | z2 C,2 C,2 C,2 | F,6 C,2 | D,2 A,,2 B,,2 C,2 | A,,4 G,,4- | G,,8 | z8 | %26
w: de l'et- er- no|fo- co|ma di voi|che ver-|re- te\_a si- mil|lo- co|_||
 z8 | z8 | z4 G,4 | G,2 E,2 A,2 A,2 | G,4 C,2 C2 | C2 B,2 C2 C2 | G,4 z2 C,2- | C,2 F,4 E,2 | %34
w: ||per|vir- tu del bel|vi- so pe-|na non fia la|giu che'l|_ cor mi|
 D,3 C, _B,,4 | C,8 | z2 C,2 D,2 D,2 | _B,,4 C,4- | C,4 z2 C,2 | C,2 G,,2 C,2 C,2 | %40
w: toc- * *|chi,|che'l cor mi|toc- chi|_ so-|l'un tor- men- t'ha-|
 G,,2 G,2 G,2 F,2 | E,4 D,2 D,2 | C,2 B,,2 A,,4 | G,,4 z2 G,,2 | C,2 B,,2 C,4 | G,,8- | G,,8 |] %47
w: vro di chiu- der|gli\_oc- chi, di|chiu- der gli\_oc-|chi, di|chiu- der gli\_oc-|chi.|_|

